X: 69
T:Last of the Lot (#178), The
M:6/8
L:1/8
S:Capt. F. O'Neill
K:G
B/2d/2|e2 e dBd|ege dcA|BGG dGG|BAG ABd|
eee dBd|e/2f/2ge dBA|BGG dBG|EAA A2:|
|:e|a3 bag|eaa ged|BAA BGG|BcA BGG|
a2 a bag|eaa ged|BAA dBG|EAA A2:||

